X:1
T:L'Indifférente
T:L'Indifférente
T:Jean-Philippe Rameau
T:Suite en Sol Nr 2
%%score { ( 1 2 ) | ( 3 4 ) }
L:1/8
Q:1/4=93
M:3/4
K:Bb
V:1 treble nm="Piano"
V:2 treble 
V:3 bass 
V:4 bass 
V:1
 Bcdcde | d2 g2 g2 | g2 ^fgaf | g=fedcB | e2 c2 e2 | Pd2 B2 d2 | Pc2 A2 B2 | AG^F=E D2 | Bcdcde | %9
 d2 g2 g2 | g2 ^fgaf | g=fedcB | e2 c2 e2 | Pd2 B2 d2 | Pc2 A2 B2 |{B} TA6 :: defefg | f2 b3 a | %18
 gfedce | ABAGFE | DFBFGA | GABcde | ABcdef | dedc B2 | dc=BAGF | =EFED C2 | =ed^c=BAG | %27
 ^FGF=E D2 | GABGcA | BcdBec | d=efdge | ^f=edefg | agabc'a | bc'abgb | (ag{g} T^f3) =e/f/ | g6 |] %36
V:2
 GABABc | BAGFED |{D} TC4{B,C} D2 |[I:staff +1] G,4[I:staff -1] G2 | CGABAC | x6 | x6 | x6 | x6 | %9
 x6 | x6 | x6 | x6 | x6 | x6 | x6 :: Bcdcde | dcBAGF | EDEFGE | FGFEDC | x6 | E4 C2 | %22
 F4[I:staff +1] F,2 | x6 | x6 | x6 | x6 | x6 | x6 | x4[I:staff -1] A2 | B6 | A4 G2 | ^F2 =E2 D2 | %33
 G2 F2 E2 | x6 | z d-[Bd-][GBd]- [GBd]2 |] %36
V:3
 x6 | x6 | x6 | x6 | x6 | B,[I:staff -1]^FGAG[I:staff +1]B, | A,[I:staff -1]G^FDG[I:staff +1]G, | %7
 D3 CPB,A, | G,A,B,A,B,C | B,A,G,F,E,D, |{D,} TC,4{B,,C,} D,2 | G,,4 G,2 | C,G,A,B,A,C, | %13
 B,,^F,G,A,G,B,, | A,,G,^F,D,G,G,, | D,6 :: x6 | x6 | x6 | x6 | B,2 D2 B,2 | x6 | x6 | B,6 | %24
 z2 z2 [=B,,D,G,-]2 | [C,=E,G,]4 C,,2 | z2 z2 [^C,=E,A,-]2 | [D,^F,A,]4 D,,2 | D2 =E2 ^F2 | %29
 [G,G]4 C2 | B,4 C2 | D6- | D2 z2 z2 | z6 | C2 D4 | G,6 |] %36
V:4
 x6 | x6 | x6 | x6 | x6 | x6 | x6 | x6 | x6 | x6 | x6 | x6 | x6 | x6 | x6 | z2 z2 D,,2 :: x6 | x6 | %18
 x6 | x6 | x6 | x6 | x6 | z2 z2 B,,2 | x6 | x6 | x6 | x6 | B,4 A,2 | x6 | x6 | x6 | x6 | x6 | %34
 x2 z2 D,2 | z2 z D, G,,2 |] %36

